Simply-Purple-Circles/scalable/apps/gnome-nibbles.svg

<svg xmlns="http://www.w3.org/2000/svg" width="48" height="48" viewBox="0 0 12.7 12.7"><path d="M6.34.07a6.29 6.29 0 0 0-6.29 6.3 6.29 6.29 0 0 0 6.3 6.28 6.29 6.29 0 0 0 6.28-6.29A6.29 6.29 0 0 0 6.34.07zm-.01.94a5.4 5.4 0 0 1 5.4 5.4 5.4 5.4 0 0 1-5.4 5.41 5.4 5.4 0 0 1-5.41-5.4A5.4 5.4 0 0 1 6.32 1zM4.59 2.34c-1.06-.02-2.28.97-2.13 2.13.12 1.72 1.66 5.8 2.61 5.78.94.15 1.37-1.46 2.06-2.2.24-.13.72 2.04 2.09 2.04.41.03.83-.11.84-.48 0-.58-1.1-.18-1.54-1.76-.34-1.2-.89-1.79-1.28-1.77-.62.22-1.38 1.95-1.71 2.17-1.11-.98.88-2.63.55-4.14-.1-1.25-.76-1.75-1.49-1.77zm0 .98c.32 0 .58.34.58.77 0 .42-.26.77-.57.77-.19 0-.35-.13-.46-.32V4.53a.88.88 0 0 1-.07-.16c-.12.18-.35.83-.53 1.07-.19 0-.45-.4-.45-.85 0-.46.24-.83.53-.83.17 0 .32.13.41.33 0-.43.26-.77.57-.77zm.06.77a.14.26 0 0 0-.14.27.14.26 0 0 0 .27 0 .14.26 0 0 0-.13-.27zm-.88.22a.14.26 0 0 0-.14.27.14.26 0 0 0 .27 0 .14.26 0 0 0-.13-.27zm1.84.63c0 .87-.8 1.93-1.28 1.92-.68 0-.91-.5-1.06-.86A9.3 9.3 0 0 0 5.6 4.94z" fill="#963996"/></svg>

<?xml version="1.0" encoding="UTF-8" standalone="no"?>
<svg
   xmlns:dc="http://purl.org/dc/elements/1.1/"
   xmlns:cc="http://creativecommons.org/ns#"
   xmlns:rdf="http://www.w3.org/1999/02/22-rdf-syntax-ns#"
   xmlns:svg="http://www.w3.org/2000/svg"
   xmlns="http://www.w3.org/2000/svg"
   xmlns:sodipodi="http://sodipodi.sourceforge.net/DTD/sodipodi-0.dtd"
   xmlns:inkscape="http://www.inkscape.org/namespaces/inkscape"
   width="48"
   height="48"
   viewBox="0 0 12.7 12.7"
   version="1.1"
   id="svg4"
   sodipodi:docname="gnome-nibbles.svg"
   inkscape:version="0.92.4 (5da689c313, 2019-01-14)">
  <metadata
     id="metadata10">
    <rdf:RDF>
      <cc:Work
         rdf:about="">
        <dc:format>image/svg+xml</dc:format>
        <dc:type
           rdf:resource="http://purl.org/dc/dcmitype/StillImage" />
        <dc:title></dc:title>
      </cc:Work>
    </rdf:RDF>
  </metadata>
  <defs
     id="defs8" />
  <sodipodi:namedview
     pagecolor="#ffffff"
     bordercolor="#666666"
     borderopacity="1"
     objecttolerance="10"
     gridtolerance="10"
     guidetolerance="10"
     inkscape:pageopacity="0"
     inkscape:pageshadow="2"
     inkscape:window-width="1087"
     inkscape:window-height="480"
     id="namedview6"
     showgrid="false"
     inkscape:zoom="4.9166667"
     inkscape:cx="2.1355932"
     inkscape:cy="24"
     inkscape:window-x="0"
     inkscape:window-y="25"
     inkscape:window-maximized="0"
     inkscape:current-layer="svg4" />
  <path
     d="M 6.34,0.07 A 6.29,6.29 0 0 0 0.05,6.37 6.29,6.29 0 0 0 6.35,12.65 6.29,6.29 0 0 0 12.63,6.36 6.29,6.29 0 0 0 6.34,0.07 Z M 6.33,1.01 a 5.4,5.4 0 0 1 5.4,5.4 5.4,5.4 0 0 1 -5.4,5.41 A 5.4,5.4 0 0 1 0.92,6.42 5.4,5.4 0 0 1 6.32,1 Z M 4.59,2.34 C 3.53,2.32 2.31,3.31 2.46,4.47 2.58,6.19 4.12,10.27 5.07,10.25 6.01,10.4 6.44,8.79 7.13,8.05 7.37,7.92 7.85,10.09 9.22,10.09 9.63,10.12 10.05,9.98 10.06,9.61 10.06,9.03 8.96,9.43 8.52,7.85 8.18,6.65 7.63,6.06 7.24,6.08 6.62,6.3 5.86,8.03 5.53,8.25 4.42,7.27 6.41,5.62 6.08,4.11 5.98,2.86 5.32,2.36 4.59,2.34 Z m 0,0.98 c 0.32,0 0.58,0.34 0.58,0.77 C 5.17,4.51 4.91,4.86 4.6,4.86 4.41,4.86 4.25,4.73 4.14,4.54 V 4.53 A 0.88,0.88 0 0 1 4.07,4.37 C 3.95,4.55 3.72,5.2 3.54,5.44 3.35,5.44 3.09,5.04 3.09,4.59 3.09,4.13 3.33,3.76 3.62,3.76 3.79,3.76 3.94,3.89 4.03,4.09 4.03,3.66 4.29,3.32 4.6,3.32 Z M 4.65,4.09 A 0.14,0.26 0 0 0 4.51,4.36 0.14,0.26 0 0 0 4.78,4.36 0.14,0.26 0 0 0 4.65,4.09 Z M 3.77,4.31 A 0.14,0.26 0 0 0 3.63,4.58 0.14,0.26 0 0 0 3.9,4.58 0.14,0.26 0 0 0 3.77,4.31 Z M 5.61,4.94 C 5.61,5.81 4.81,6.87 4.33,6.86 3.65,6.86 3.42,6.36 3.27,6 A 9.3,9.3 0 0 0 5.6,4.94 Z"
     id="path2"
     inkscape:connector-curvature="0"
     style="fill:#963996" />
</svg>
